( pcb2gcode 1.2.1 )
( Software-independent Gcode )
      
G94 ( Millimeters per minute feed rate. )
G21 ( Units == Millimeters. )

G90 ( Absolute coordinates. )
S10000 ( RPM spindle speed. )
G64 P0.05080 ( set maximum deviation from commanded toolpath )
F600.00000 ( Feedrate. )

F600.00000 ( Feedrate. )
M3 ( Spindle on clockwise. )
G04 P0 ( dwell for no time -- G64 should not smooth over this point )
G00 Z5.00000 ( retract )

G00 X7.17978 Y44.38824 ( rapid move to begin. )
F300.00000
G01 Z-0.08000
G04 P0 ( dwell for no time -- G64 should not smooth over this point )
F600.00000
X7.17978 Y44.38824
X7.07818 Y44.31204
X7.05278 Y41.08624
X7.07818 Y40.29884
X7.02738 Y39.74004
X6.67178 Y38.87644
X6.31618 Y38.41924
X5.88438 Y38.03824
X5.37638 Y37.73344
X4.74138 Y37.55564
X3.97938 Y37.50484
X0.32178 Y37.50484
X0.19478 Y37.42864
X0.16938 Y7.17724
X0.27098 Y7.07564
X4.69058 Y7.02484
X5.32558 Y6.84704
X5.85898 Y6.56764
X6.29078 Y6.18664
X6.79878 Y5.47544
X7.00198 Y4.86584
X7.07818 Y4.33244
X7.05278 Y0.29384
X7.12898 Y0.16684
X87.36758 Y0.14144
X87.49458 Y0.21764
X87.51998 Y4.25624
X87.62158 Y4.96744
X87.85018 Y5.55164
X88.35818 Y6.26284
X88.81538 Y6.61844
X89.37418 Y6.87244
X89.83138 Y7.02484
X94.27638 Y7.05024
X94.40338 Y7.12644
X94.42878 Y37.37784
X94.32718 Y37.47944
X91.10138 Y37.50484
X89.93298 Y37.55564
X89.29798 Y37.73344
X88.76458 Y38.01284
X88.35818 Y38.31764
X88.00258 Y38.77484
X87.72318 Y39.30824
X87.62158 Y39.61304
X87.51998 Y40.32424
X87.51998 Y44.28664
X87.41838 Y44.38824
X7.17978 Y44.41364
G04 P0 ( dwell for no time -- G64 should not smooth over this point )
G00 Z5.00000 ( retract )

G00 X8.60218 Y43.55004 ( rapid move to begin. )
F300.00000
G01 Z-0.08000
G04 P0 ( dwell for no time -- G64 should not smooth over this point )
F600.00000
X8.60218 Y43.55004
X8.09418 Y43.06744
X8.04338 Y39.15584
X5.32558 Y36.99684
X4.84298 Y36.66664
X1.79498 Y36.66664
X1.64258 Y36.61584
X1.13458 Y36.10784
X1.08378 Y35.95544
X1.10918 Y8.54884
X1.49018 Y8.11704
X1.71878 Y7.93924
X5.52878 Y7.88844
X8.06878 Y5.34844
X8.09418 Y1.51304
X8.72918 Y0.92884
X86.35158 Y0.92884
X86.96118 Y1.53844
X86.98658 Y5.37384
X87.77398 Y6.21204
X87.92638 Y6.46604
X88.12958 Y6.66924
X88.61218 Y6.99944
X89.52658 Y7.91384
X92.75238 Y7.93924
X93.33658 Y8.57424
X93.33658 Y36.00624
X92.75238 Y36.64124
X89.52658 Y36.66664
X88.51058 Y37.68264
X88.02798 Y38.01284
X87.69778 Y38.49544
X86.98658 Y39.20664
X86.96118 Y43.04204
X86.35158 Y43.65164
X8.72918 Y43.65164
X8.60218 Y43.57544
G04 P0 ( dwell for no time -- G64 should not smooth over this point )
G00 Z5.00000 ( retract )

G00 X16.09518 Y41.39104 ( rapid move to begin. )
F300.00000
G01 Z-0.08000
G04 P0 ( dwell for no time -- G64 should not smooth over this point )
F600.00000
X16.09518 Y41.39104
X15.28238 Y40.60364
X14.69818 Y39.96864
X14.67278 Y29.83404
X13.65678 Y28.81804
X9.84678 Y28.76724
X8.39898 Y27.37024
X8.32278 Y27.04004
X8.32278 Y25.31284
X8.09418 Y25.13504
X7.94178 Y24.88104
X7.91638 Y24.50004
X7.94178 Y24.11904
X8.14498 Y23.81424
X8.39898 Y23.66184
X9.16098 Y23.66184
X9.41498 Y23.81424
X9.59278 Y24.04284
X9.66898 Y24.37304
X9.66898 Y24.77944
X9.54198 Y25.05884
X9.44038 Y25.16044
X9.44038 Y25.21124
X9.26258 Y25.28744
X9.26258 Y26.81144
X10.27858 Y27.82744
X14.08858 Y27.87824
X15.53638 Y29.27524
X15.61258 Y29.60544
X15.63798 Y39.53684
X16.65398 Y40.55284
X29.91278 Y40.55284
X29.91278 Y34.15204
X29.68418 Y33.97424
X29.55718 Y33.69484
X29.53178 Y33.31384
X29.60798 Y32.98364
X29.76038 Y32.72964
X30.03978 Y32.60264
X30.39538 Y32.55184
X30.75098 Y32.60264
X31.00498 Y32.75504
X31.18278 Y32.98364
X31.23358 Y33.54244
X31.18278 Y33.79644
X31.00498 Y34.02504
X31.00498 Y34.07584
X30.85258 Y34.12664
X30.85258 Y40.52744
X48.91198 Y40.55284
X48.93738 Y40.47664
X48.81038 Y40.40044
X48.63258 Y40.17184
X48.58178 Y39.61304
X48.63258 Y39.35904
X48.81038 Y39.13044
X48.81038 Y39.07964
X49.08978 Y38.95264
X49.44538 Y38.90184
X49.80098 Y38.95264
X50.05498 Y39.10504
X50.23278 Y39.33364
X50.28358 Y39.89244
X50.23278 Y40.14644
X50.05498 Y40.37504
X50.05498 Y40.42584
X49.90258 Y40.47664
X49.92798 Y40.55284
X77.13138 Y40.52744
X78.14738 Y39.51144
X78.17278 Y37.09844
X78.24898 Y36.86984
X78.52838 Y36.74284
X81.98278 Y33.28844
X81.98278 Y30.03724
X81.16998 Y30.03724
X81.11918 Y30.69764
X79.44278 Y30.69764
X79.46818 Y28.48784
X81.14458 Y28.48784
X81.16998 Y29.07204
X85.51338 Y29.09744
X85.56418 Y28.84344
X86.98658 Y28.84344
X86.98658 Y29.09744
X87.29138 Y29.09744
X88.30738 Y28.08144
X88.33278 Y21.19804
X78.19818 Y21.17264
X78.07118 Y21.24884
X77.99498 Y21.37584
X77.71558 Y21.50284
X77.35998 Y21.55364
X77.00438 Y21.50284
X76.75038 Y21.35044
X76.57258 Y21.12184
X76.52178 Y20.56304
X76.57258 Y20.30904
X76.75038 Y20.08044
X76.75038 Y20.02964
X76.87738 Y19.95344
X76.85198 Y18.86124
X76.72498 Y18.78504
X76.57258 Y18.53104
X76.52178 Y18.17544
X76.62338 Y17.66744
X76.75038 Y17.48964
X77.02978 Y17.36264
X77.38538 Y17.31184
X77.74098 Y17.36264
X77.99498 Y17.51504
X78.17278 Y17.74364
X78.22358 Y18.30244
X78.17278 Y18.55644
X77.99498 Y18.78504
X77.99498 Y18.83584
X77.84258 Y18.88664
X77.86798 Y19.97884
X77.99498 Y20.05504
X78.12198 Y20.23284
X88.33278 Y20.23284
X88.33278 Y12.10484
X87.29138 Y11.01264
X79.77298 Y11.01264
X79.62058 Y10.96184
X78.22358 Y9.51404
X78.17278 Y9.36164
X78.17278 Y4.48484
X77.13138 Y3.39264
X62.90738 Y3.39264
X62.75498 Y3.59584
X62.47558 Y3.72284
X62.11998 Y3.77364
X61.76438 Y3.72284
X61.51038 Y3.57044
X61.38338 Y3.39264
X34.45938 Y3.39264
X33.39258 Y4.45944
X33.41798 Y9.81884
X33.54498 Y9.89504
X33.72278 Y10.12364
X33.77358 Y10.68244
X33.72278 Y10.93644
X33.54498 Y11.16504
X33.54498 Y11.21584
X33.26558 Y11.34284
X32.90998 Y11.39364
X32.55438 Y11.34284
X32.30038 Y11.19044
X32.12258 Y10.96184
X32.07178 Y10.40304
X32.12258 Y10.14904
X32.30038 Y9.92044
X32.30038 Y9.86964
X32.42738 Y9.79344
X32.47818 Y3.95144
X33.67198 Y2.70684
X34.02758 Y2.45284
X61.35798 Y2.45284
X61.51038 Y2.24964
X61.78978 Y2.12264
X62.14538 Y2.07184
X62.50098 Y2.12264
X62.75498 Y2.27504
X62.88198 Y2.45284
X77.51238 Y2.45284
X77.66478 Y2.50364
X79.06178 Y3.95144
X79.11258 Y4.10384
X79.11258 Y8.98064
X80.15398 Y10.07284
X87.67238 Y10.07284
X87.82478 Y10.12364
X89.22178 Y11.57144
X89.27258 Y11.72384
X89.24718 Y28.56404
X88.45978 Y29.40224
X87.82478 Y29.98644
X87.67238 Y30.03724
X86.98658 Y30.06264
X86.98658 Y30.26584
X85.53878 Y30.29124
X85.53878 Y30.03724
X82.92258 Y30.06264
X82.92258 Y33.51704
X82.84638 Y33.74564
X82.56698 Y33.87264
X79.11258 Y37.32704
X79.11258 Y39.76544
X79.03638 Y40.09564
X77.81718 Y41.31484
X77.56318 Y41.46724
X16.24758 Y41.46724
X16.09518 Y41.41644
G04 P0 ( dwell for no time -- G64 should not smooth over this point )
G00 Z5.00000 ( retract )

G00 X82.16058 Y39.96864 ( rapid move to begin. )
F300.00000
G01 Z-0.08000
G04 P0 ( dwell for no time -- G64 should not smooth over this point )
F600.00000
X82.16058 Y39.96864
X81.85578 Y39.89244
X81.34778 Y39.58764
X80.91598 Y39.20664
X80.73818 Y38.97804
X80.38258 Y38.11444
X80.33178 Y37.75884
X80.35718 Y36.97144
X80.48418 Y36.48884
X80.68738 Y36.08244
X81.04298 Y35.62524
X81.50018 Y35.26964
X81.90658 Y35.06644
X82.38918 Y34.93944
X83.17658 Y34.91404
X83.53218 Y34.96484
X84.39578 Y35.32044
X84.82758 Y35.70144
X85.31018 Y36.43804
X85.41178 Y36.74284
X85.48798 Y37.47944
X85.46258 Y38.06364
X85.10698 Y38.92724
X84.75138 Y39.38444
X84.01478 Y39.86704
X83.37978 Y40.04484
X82.59238 Y40.07024
X82.16058 Y39.99404
G04 P0 ( dwell for no time -- G64 should not smooth over this point )
G00 Z5.00000 ( retract )

G00 X10.96438 Y39.96864 ( rapid move to begin. )
F300.00000
G01 Z-0.08000
G04 P0 ( dwell for no time -- G64 should not smooth over this point )
F600.00000
X10.96438 Y39.96864
X10.65958 Y39.89244
X10.15158 Y39.58764
X9.71978 Y39.20664
X9.54198 Y38.97804
X9.18638 Y38.11444
X9.13558 Y37.75884
X9.16098 Y36.97144
X9.28798 Y36.48884
X9.49118 Y36.08244
X9.84678 Y35.62524
X10.30398 Y35.26964
X10.71038 Y35.06644
X11.19298 Y34.93944
X11.98038 Y34.91404
X12.33598 Y34.96484
X13.19958 Y35.32044
X13.63138 Y35.70144
X14.11398 Y36.43804
X14.21558 Y36.74284
X14.29178 Y37.47944
X14.26638 Y38.06364
X13.91078 Y38.92724
X13.55518 Y39.38444
X12.81858 Y39.86704
X12.18358 Y40.04484
X11.39618 Y40.07024
X10.96438 Y39.99404
G04 P0 ( dwell for no time -- G64 should not smooth over this point )
G00 Z5.00000 ( retract )

G00 X61.68818 Y36.69204 ( rapid move to begin. )
F300.00000
G01 Z-0.08000
G04 P0 ( dwell for no time -- G64 should not smooth over this point )
F600.00000
X61.68818 Y36.69204
X61.56118 Y36.64124
X61.33258 Y36.36184
X61.28178 Y35.80304
X61.33258 Y35.65064
X60.57058 Y34.78704
X60.57058 Y32.34864
X56.88758 Y28.61484
X55.66838 Y28.61484
X54.42378 Y27.42104
X54.29678 Y27.34484
X53.10298 Y27.31944
X52.31558 Y26.58284
X51.95998 Y26.63364
X51.60438 Y26.58284
X51.35038 Y26.43044
X51.17258 Y26.20184
X51.12178 Y25.64304
X51.17258 Y25.38904
X51.35038 Y25.16044
X51.35038 Y25.10964
X51.62978 Y24.98264
X51.98538 Y24.93184
X52.34098 Y24.98264
X52.59498 Y25.13504
X52.77278 Y25.36364
X52.82358 Y25.92244
X52.77278 Y26.07484
X53.40778 Y26.76064
X54.62698 Y26.76064
X55.87158 Y27.95444
X55.99858 Y28.03064
X57.19238 Y28.05604
X60.46898 Y31.28184
X61.15478 Y32.01844
X61.15478 Y34.45684
X61.78978 Y35.14264
X62.14538 Y35.09184
X62.50098 Y35.14264
X62.75498 Y35.29504
X62.93278 Y35.52364
X62.98358 Y36.08244
X62.93278 Y36.33644
X62.75498 Y36.56504
X62.75498 Y36.61584
X62.47558 Y36.74284
X62.11998 Y36.79364
X61.68818 Y36.71744
G04 P0 ( dwell for no time -- G64 should not smooth over this point )
G00 Z5.00000 ( retract )

G00 X51.52818 Y36.69204 ( rapid move to begin. )
F300.00000
G01 Z-0.08000
G04 P0 ( dwell for no time -- G64 should not smooth over this point )
F600.00000
X51.52818 Y36.69204
X51.40118 Y36.64124
X51.17258 Y36.36184
X51.17258 Y36.26024
X40.42838 Y36.23484
X37.86298 Y33.72024
X36.26278 Y33.69484
X36.26278 Y33.79644
X36.08498 Y34.02504
X36.08498 Y34.07584
X35.80558 Y34.20284
X35.44998 Y34.25364
X35.09438 Y34.20284
X34.84038 Y34.05044
X34.66258 Y33.82184
X34.61178 Y33.26304
X34.66258 Y33.00904
X34.84038 Y32.78044
X34.84038 Y32.72964
X35.11978 Y32.60264
X35.47538 Y32.55184
X35.83098 Y32.60264
X36.08498 Y32.75504
X36.26278 Y32.98364
X36.26278 Y33.08524
X38.06618 Y33.11064
X38.21858 Y33.16144
X40.70778 Y35.65064
X51.17258 Y35.65064
X51.17258 Y35.54904
X51.35038 Y35.32044
X51.35038 Y35.26964
X51.62978 Y35.14264
X51.98538 Y35.09184
X52.34098 Y35.14264
X52.59498 Y35.29504
X52.77278 Y35.52364
X52.82358 Y36.08244
X52.77278 Y36.33644
X52.59498 Y36.56504
X52.59498 Y36.61584
X52.31558 Y36.74284
X51.95998 Y36.79364
X51.52818 Y36.71744
G04 P0 ( dwell for no time -- G64 should not smooth over this point )
G00 Z5.00000 ( retract )

G00 X25.03598 Y36.13324 ( rapid move to begin. )
F300.00000
G01 Z-0.08000
G04 P0 ( dwell for no time -- G64 should not smooth over this point )
F600.00000
X25.03598 Y36.13324
X23.81678 Y34.93944
X23.74058 Y34.81244
X23.74058 Y28.51324
X22.57218 Y27.34484
X11.19298 Y27.34484
X10.35478 Y26.55744
X9.77058 Y25.92244
X9.77058 Y25.71924
X9.82138 Y25.56684
X9.82138 Y23.53484
X9.44038 Y23.10304
X9.11018 Y22.82364
X8.72918 Y22.84904
X8.37358 Y22.79824
X8.14498 Y22.67124
X7.99258 Y22.41724
X7.91638 Y22.08704
X7.91638 Y21.68064
X7.96718 Y21.52824
X8.14498 Y21.29964
X8.55138 Y21.09644
X9.13558 Y21.12184
X9.44038 Y21.27424
X9.64358 Y21.57904
X9.64358 Y22.34104
X10.32938 Y23.07764
X10.35478 Y23.25544
X10.30398 Y23.61104
X10.30398 Y25.54144
X11.52318 Y26.76064
X22.90238 Y26.76064
X23.74058 Y27.54804
X24.32478 Y28.18304
X24.32478 Y34.48224
X25.49318 Y35.65064
X27.70298 Y35.62524
X28.82058 Y34.50764
X28.79518 Y31.68824
X28.49038 Y31.53584
X28.33798 Y31.28184
X28.26178 Y30.95164
X28.28718 Y30.57064
X28.41418 Y30.29124
X28.64278 Y30.11344
X28.79518 Y30.06264
X28.82058 Y29.47844
X29.60798 Y28.64024
X30.24298 Y28.05604
X34.05298 Y28.00524
X35.93258 Y26.12564
X35.88178 Y25.77004
X35.93258 Y25.41444
X36.08498 Y25.16044
X36.33898 Y25.00804
X36.66918 Y24.93184
X37.05018 Y24.95724
X37.35498 Y25.10964
X37.50738 Y25.36364
X37.58358 Y25.69384
X37.55818 Y26.07484
X37.43118 Y26.35424
X37.20258 Y26.53204
X36.89778 Y26.63364
X36.38978 Y26.58284
X34.76418 Y28.20844
X34.33238 Y28.58944
X30.52238 Y28.64024
X29.40478 Y29.75784
X29.43018 Y30.03724
X29.73498 Y30.18964
X29.88738 Y30.44364
X29.96358 Y30.77384
X29.93818 Y31.15484
X29.81118 Y31.43424
X29.58258 Y31.61204
X29.43018 Y31.66284
X29.37938 Y34.86324
X28.05858 Y36.18404
X27.90618 Y36.23484
X25.16298 Y36.23484
X25.03598 Y36.15864
G04 P0 ( dwell for no time -- G64 should not smooth over this point )
G00 Z5.00000 ( retract )

G00 X40.27598 Y34.86324 ( rapid move to begin. )
F300.00000
G01 Z-0.08000
G04 P0 ( dwell for no time -- G64 should not smooth over this point )
F600.00000
X40.27598 Y34.86324
X37.05018 Y31.66284
X36.89778 Y31.71364
X36.33898 Y31.66284
X36.11038 Y31.53584
X35.95798 Y31.28184
X35.88178 Y30.95164
X35.90718 Y30.57064
X36.03418 Y30.29124
X36.26278 Y30.11344
X36.56758 Y30.01184
X37.12638 Y30.06264
X37.35498 Y30.18964
X37.50738 Y30.44364
X37.58358 Y30.77384
X37.55818 Y31.15484
X39.13298 Y32.78044
X40.78398 Y34.38064
X45.45758 Y34.38064
X46.67678 Y33.16144
X46.82918 Y33.11064
X51.17258 Y33.08524
X51.17258 Y32.98364
X51.35038 Y32.75504
X51.60438 Y32.60264
X51.95998 Y32.55184
X52.31558 Y32.60264
X52.59498 Y32.72964
X52.74738 Y32.98364
X52.82358 Y33.31384
X52.79818 Y33.69484
X52.67118 Y33.97424
X52.44258 Y34.15204
X52.13778 Y34.25364
X51.57898 Y34.20284
X51.35038 Y34.07584
X51.19798 Y33.82184
X51.17258 Y33.69484
X47.10858 Y33.69484
X45.86398 Y34.88864
X45.73698 Y34.96484
X40.45378 Y34.96484
X40.27598 Y34.88864
G04 P0 ( dwell for no time -- G64 should not smooth over this point )
G00 Z5.00000 ( retract )

G00 X61.68818 Y34.15204 ( rapid move to begin. )
F300.00000
G01 Z-0.08000
G04 P0 ( dwell for no time -- G64 should not smooth over this point )
F600.00000
X61.68818 Y34.15204
X61.56118 Y34.10124
X61.33258 Y33.82184
X61.28178 Y33.26304
X61.33258 Y33.00904
X61.51038 Y32.78044
X61.51038 Y32.72964
X61.84058 Y32.55184
X61.84058 Y31.02784
X60.72298 Y29.91024
X59.52918 Y29.88484
X59.37678 Y29.83404
X56.88758 Y27.34484
X55.66838 Y27.34484
X54.85558 Y26.58284
X54.49998 Y26.63364
X54.14438 Y26.58284
X53.89038 Y26.43044
X53.71258 Y26.20184
X53.66178 Y25.64304
X53.71258 Y25.38904
X53.89038 Y25.16044
X53.89038 Y25.10964
X54.16978 Y24.98264
X54.52538 Y24.93184
X54.88098 Y24.98264
X55.13498 Y25.13504
X55.31278 Y25.36364
X55.36358 Y25.92244
X55.31278 Y26.07484
X55.94778 Y26.76064
X57.16698 Y26.76064
X59.73238 Y29.27524
X60.92618 Y29.30064
X61.07858 Y29.35144
X62.39938 Y30.67224
X62.42478 Y32.57724
X62.70418 Y32.70424
X62.93278 Y32.98364
X62.98358 Y33.54244
X62.93278 Y33.79644
X62.75498 Y34.02504
X62.75498 Y34.07584
X62.47558 Y34.20284
X62.11998 Y34.25364
X61.68818 Y34.17744
G04 P0 ( dwell for no time -- G64 should not smooth over this point )
G00 Z5.00000 ( retract )

G00 X27.39818 Y34.15204 ( rapid move to begin. )
F300.00000
G01 Z-0.08000
G04 P0 ( dwell for no time -- G64 should not smooth over this point )
F600.00000
X27.39818 Y34.15204
X27.27118 Y34.10124
X27.04258 Y33.82184
X26.99178 Y33.26304
X27.04258 Y33.00904
X27.22038 Y32.78044
X27.22038 Y32.72964
X27.55058 Y32.55184
X27.55058 Y28.18304
X28.33798 Y27.34484
X28.97298 Y26.76064
X32.73218 Y26.76064
X33.39258 Y26.10024
X33.34178 Y25.94784
X33.39258 Y25.38904
X33.57038 Y25.16044
X33.57038 Y25.10964
X33.84978 Y24.98264
X34.20538 Y24.93184
X34.56098 Y24.98264
X34.81498 Y25.13504
X34.99278 Y25.36364
X35.04358 Y25.92244
X34.99278 Y26.17644
X34.81498 Y26.40504
X34.81498 Y26.45584
X34.53558 Y26.58284
X34.17998 Y26.63364
X33.87518 Y26.58284
X33.16398 Y27.29404
X33.01158 Y27.34484
X29.35398 Y27.34484
X28.51578 Y28.13224
X28.13478 Y28.56404
X28.16018 Y32.60264
X28.43958 Y32.72964
X28.61738 Y32.95824
X28.69358 Y33.28844
X28.66818 Y33.66944
X28.46498 Y34.07584
X28.18558 Y34.20284
X27.82998 Y34.25364
X27.39818 Y34.17744
G04 P0 ( dwell for no time -- G64 should not smooth over this point )
G00 Z5.00000 ( retract )

G00 X43.50178 Y34.10124 ( rapid move to begin. )
F300.00000
G01 Z-0.08000
G04 P0 ( dwell for no time -- G64 should not smooth over this point )
F600.00000
X43.50178 Y34.10124
X43.19698 Y34.02504
X42.46038 Y33.54244
X41.97778 Y32.80584
X41.87618 Y32.50104
X41.79998 Y31.76444
X41.92698 Y31.07864
X42.18098 Y30.51984
X42.56198 Y30.08804
X43.17158 Y29.68164
X43.83198 Y29.52924
X44.21298 Y29.50384
X44.89878 Y29.63084
X45.20358 Y29.73244
X45.81318 Y30.13884
X46.16878 Y30.59604
X46.39738 Y31.18024
X46.47358 Y31.51044
X46.49898 Y31.89144
X46.34658 Y32.75504
X46.14338 Y33.16144
X45.76238 Y33.59324
X45.27978 Y33.92344
X44.69558 Y34.15204
X43.95898 Y34.17744
X43.50178 Y34.12664
G04 P0 ( dwell for no time -- G64 should not smooth over this point )
G00 Z5.00000 ( retract )

G00 X18.50818 Y34.10124 ( rapid move to begin. )
F300.00000
G01 Z-0.08000
G04 P0 ( dwell for no time -- G64 should not smooth over this point )
F600.00000
X18.50818 Y34.10124
X18.20338 Y34.02504
X17.46678 Y33.54244
X16.98418 Y32.80584
X16.88258 Y32.50104
X16.80638 Y31.76444
X16.93338 Y31.07864
X17.18738 Y30.51984
X17.56838 Y30.08804
X18.17798 Y29.68164
X18.83838 Y29.52924
X19.21938 Y29.50384
X19.90518 Y29.63084
X20.20998 Y29.73244
X20.81958 Y30.13884
X21.17518 Y30.59604
X21.40378 Y31.18024
X21.47998 Y31.51044
X21.50538 Y31.89144
X21.35298 Y32.75504
X21.14978 Y33.16144
X20.76878 Y33.59324
X20.28618 Y33.92344
X19.70198 Y34.15204
X18.96538 Y34.17744
X18.50818 Y34.12664
G04 P0 ( dwell for no time -- G64 should not smooth over this point )
G00 Z5.00000 ( retract )

G00 X33.74818 Y31.61204 ( rapid move to begin. )
F300.00000
G01 Z-0.08000
G04 P0 ( dwell for no time -- G64 should not smooth over this point )
F600.00000
X33.74818 Y31.61204
X33.62118 Y31.56124
X33.39258 Y31.28184
X33.34178 Y30.72304
X33.39258 Y30.46904
X33.57038 Y30.24044
X33.57038 Y30.18964
X33.84978 Y30.06264
X34.20538 Y30.01184
X34.51018 Y30.06264
X36.13578 Y28.43704
X36.56758 Y28.05604
X39.08218 Y28.03064
X41.01258 Y26.10024
X40.96178 Y25.94784
X40.98718 Y25.41444
X40.37758 Y24.80484
X39.15838 Y24.80484
X37.91378 Y23.61104
X37.78678 Y23.53484
X13.80918 Y23.53484
X13.65678 Y23.48404
X12.43758 Y22.26484
X12.18358 Y22.26484
X12.18358 Y22.36644
X11.98038 Y22.67124
X11.72638 Y22.82364
X10.96438 Y22.82364
X10.71038 Y22.67124
X10.53258 Y22.44264
X10.45638 Y22.11244
X10.45638 Y21.70604
X10.58338 Y21.42664
X10.68498 Y21.32504
X10.68498 Y21.27424
X10.93898 Y21.12184
X11.70098 Y21.12184
X11.95498 Y21.27424
X12.13278 Y21.50284
X12.18358 Y21.65524
X12.74238 Y21.70604
X14.03778 Y22.95064
X38.19318 Y22.97604
X39.41238 Y24.19524
X40.60618 Y24.22064
X40.75858 Y24.27144
X41.46978 Y24.98264
X41.82538 Y24.93184
X42.18098 Y24.98264
X42.43498 Y25.13504
X42.61278 Y25.36364
X42.66358 Y25.92244
X42.61278 Y26.17644
X42.43498 Y26.40504
X42.43498 Y26.45584
X42.15558 Y26.58284
X41.79998 Y26.63364
X41.49518 Y26.58284
X39.86958 Y28.20844
X39.43778 Y28.58944
X36.92318 Y28.61484
X34.99278 Y30.54524
X35.04358 Y30.69764
X34.99278 Y31.25644
X34.81498 Y31.48504
X34.81498 Y31.53584
X34.53558 Y31.66284
X34.17998 Y31.71364
X33.74818 Y31.63744
G04 P0 ( dwell for no time -- G64 should not smooth over this point )
G00 Z5.00000 ( retract )

G00 X31.20818 Y31.61204 ( rapid move to begin. )
F300.00000
G01 Z-0.08000
G04 P0 ( dwell for no time -- G64 should not smooth over this point )
F600.00000
X31.20818 Y31.61204
X31.08118 Y31.56124
X30.85258 Y31.28184
X30.80178 Y30.72304
X30.85258 Y30.46904
X31.03038 Y30.24044
X31.03038 Y30.18964
X31.30978 Y30.06264
X31.66538 Y30.01184
X31.97018 Y30.06264
X32.68138 Y29.35144
X32.83378 Y29.30064
X34.02758 Y29.27524
X36.46598 Y26.83684
X36.59298 Y26.76064
X37.81218 Y26.76064
X38.47258 Y26.10024
X38.42178 Y25.94784
X38.47258 Y25.49064
X37.83758 Y24.80484
X12.23438 Y24.80484
X12.23438 Y25.41444
X10.43098 Y25.38904
X10.43098 Y23.61104
X12.23438 Y23.63644
X12.25978 Y24.22064
X38.06618 Y24.22064
X38.21858 Y24.27144
X38.92978 Y24.98264
X39.28538 Y24.93184
X39.64098 Y24.98264
X39.89498 Y25.13504
X40.07278 Y25.36364
X40.12358 Y25.92244
X40.07278 Y26.17644
X39.89498 Y26.40504
X39.89498 Y26.45584
X39.61558 Y26.58284
X39.25998 Y26.63364
X38.95518 Y26.58284
X38.24398 Y27.29404
X38.09158 Y27.34484
X36.89778 Y27.37024
X34.45938 Y29.80864
X34.33238 Y29.88484
X33.11318 Y29.88484
X32.45278 Y30.54524
X32.50358 Y30.69764
X32.45278 Y31.25644
X32.27498 Y31.48504
X32.27498 Y31.53584
X31.99558 Y31.66284
X31.63998 Y31.71364
X31.20818 Y31.63744
G04 P0 ( dwell for no time -- G64 should not smooth over this point )
G00 Z5.00000 ( retract )

G00 X26.12818 Y31.61204 ( rapid move to begin. )
F300.00000
G01 Z-0.08000
G04 P0 ( dwell for no time -- G64 should not smooth over this point )
F600.00000
X26.12818 Y31.61204
X26.00118 Y31.56124
X25.77258 Y31.28184
X25.72178 Y30.72304
X25.77258 Y30.46904
X25.95038 Y30.24044
X25.95038 Y30.18964
X26.28058 Y30.01184
X26.28058 Y26.96384
X26.33138 Y26.81144
X27.55058 Y25.59224
X27.67758 Y25.51604
X30.85258 Y25.49064
X30.85258 Y25.38904
X31.03038 Y25.16044
X31.03038 Y25.10964
X31.30978 Y24.98264
X31.66538 Y24.93184
X32.02098 Y24.98264
X32.27498 Y25.13504
X32.45278 Y25.36364
X32.50358 Y25.92244
X32.45278 Y26.17644
X32.27498 Y26.40504
X32.27498 Y26.45584
X31.99558 Y26.58284
X31.63998 Y26.63364
X31.28438 Y26.58284
X31.03038 Y26.43044
X30.85258 Y26.20184
X30.85258 Y26.10024
X28.03318 Y26.07484
X26.86478 Y27.24324
X26.89018 Y30.06264
X27.16958 Y30.18964
X27.34738 Y30.41824
X27.42358 Y30.74844
X27.39818 Y31.12944
X27.19498 Y31.53584
X26.91558 Y31.66284
X26.55998 Y31.71364
X26.12818 Y31.63744
G04 P0 ( dwell for no time -- G64 should not smooth over this point )
G00 Z5.00000 ( retract )

G00 X70.57818 Y31.48504 ( rapid move to begin. )
F300.00000
G01 Z-0.08000
G04 P0 ( dwell for no time -- G64 should not smooth over this point )
F600.00000
X70.57818 Y31.48504
X70.45118 Y31.43424
X70.22258 Y31.15484
X70.17178 Y30.59604
X70.22258 Y30.34204
X70.40038 Y30.11344
X70.40038 Y30.06264
X70.67978 Y29.93564
X71.03538 Y29.88484
X71.46718 Y29.96104
X71.97518 Y29.45304
X72.00058 Y13.93364
X71.67038 Y13.75584
X71.51798 Y13.50184
X71.44178 Y13.17164
X71.46718 Y12.79064
X71.59418 Y12.51124
X71.82278 Y12.33344
X72.12758 Y12.23184
X72.68638 Y12.28264
X72.91498 Y12.40964
X73.06738 Y12.66364
X73.09278 Y12.79064
X74.00718 Y12.79064
X74.13418 Y12.51124
X74.36278 Y12.33344
X74.66758 Y12.23184
X75.22638 Y12.28264
X75.45498 Y12.40964
X75.60738 Y12.66364
X75.68358 Y12.99384
X75.65818 Y13.37484
X75.53118 Y13.65424
X75.30258 Y13.83204
X74.99778 Y13.93364
X74.43898 Y13.88284
X74.21038 Y13.75584
X74.05798 Y13.50184
X74.03258 Y13.37484
X73.11818 Y13.37484
X72.99118 Y13.65424
X72.76258 Y13.83204
X72.61018 Y13.88284
X72.58478 Y29.70704
X71.84818 Y30.49444
X71.87358 Y30.87544
X71.82278 Y31.12944
X71.64498 Y31.35804
X71.64498 Y31.40884
X71.36558 Y31.53584
X71.00998 Y31.58664
X70.57818 Y31.51044
G04 P0 ( dwell for no time -- G64 should not smooth over this point )
G00 Z5.00000 ( retract )

G00 X76.14078 Y30.59604 ( rapid move to begin. )
F300.00000
G01 Z-0.08000
G04 P0 ( dwell for no time -- G64 should not smooth over this point )
F600.00000
X76.14078 Y30.59604
X76.11538 Y29.42764
X75.86138 Y29.17364
X74.33738 Y29.17364
X74.18498 Y29.37684
X73.90558 Y29.50384
X73.54998 Y29.55464
X73.19438 Y29.50384
X72.94038 Y29.35144
X72.76258 Y29.12284
X72.71178 Y28.56404
X72.76258 Y28.31004
X72.94038 Y28.08144
X72.94038 Y28.03064
X73.21978 Y27.90364
X73.57538 Y27.85284
X73.93098 Y27.90364
X74.18498 Y28.05604
X74.26118 Y28.18304
X76.26778 Y28.20844
X76.59798 Y28.48784
X77.81718 Y28.48784
X77.84258 Y30.69764
X76.14078 Y30.67224
X76.14078 Y30.62144
G04 P0 ( dwell for no time -- G64 should not smooth over this point )
G00 Z5.00000 ( retract )

G00 X51.52818 Y30.34204 ( rapid move to begin. )
F300.00000
G01 Z-0.08000
G04 P0 ( dwell for no time -- G64 should not smooth over this point )
F600.00000
X51.52818 Y30.34204
X51.40118 Y30.29124
X51.17258 Y30.01184
X51.12178 Y29.45304
X51.17258 Y29.30064
X50.53758 Y28.61484
X48.09918 Y28.61484
X47.94678 Y28.56404
X46.62598 Y27.24324
X46.57518 Y26.58284
X46.29578 Y26.45584
X46.11798 Y26.22724
X46.04178 Y25.89704
X46.06718 Y25.51604
X46.27038 Y25.10964
X46.54978 Y24.98264
X46.90538 Y24.93184
X47.26098 Y24.98264
X47.51498 Y25.13504
X47.69278 Y25.36364
X47.74358 Y25.92244
X47.69278 Y26.17644
X47.51498 Y26.40504
X47.51498 Y26.45584
X47.18478 Y26.63364
X47.18478 Y26.83684
X48.32778 Y28.03064
X50.76618 Y28.03064
X50.91858 Y28.08144
X51.62978 Y28.79264
X51.98538 Y28.74184
X52.34098 Y28.79264
X52.59498 Y28.94504
X52.77278 Y29.17364
X52.82358 Y29.73244
X52.77278 Y29.98644
X52.59498 Y30.21504
X52.59498 Y30.26584
X52.31558 Y30.39284
X51.95998 Y30.44364
X51.52818 Y30.36744
G04 P0 ( dwell for no time -- G64 should not smooth over this point )
G00 Z5.00000 ( retract )

G00 X48.98818 Y30.34204 ( rapid move to begin. )
F300.00000
G01 Z-0.08000
G04 P0 ( dwell for no time -- G64 should not smooth over this point )
F600.00000
X48.98818 Y30.34204
X48.86118 Y30.29124
X48.63258 Y30.01184
X48.63258 Y29.91024
X46.82918 Y29.88484
X46.67678 Y29.83404
X44.23838 Y27.39564
X44.06058 Y27.16704
X44.03518 Y26.58284
X43.75578 Y26.45584
X43.57798 Y26.22724
X43.50178 Y25.89704
X43.52718 Y25.51604
X43.73038 Y25.10964
X44.00978 Y24.98264
X44.36538 Y24.93184
X44.72098 Y24.98264
X44.97498 Y25.13504
X45.15278 Y25.36364
X45.20358 Y25.92244
X45.15278 Y26.17644
X44.97498 Y26.40504
X44.97498 Y26.45584
X44.64478 Y26.63364
X44.64478 Y26.83684
X47.05778 Y29.30064
X48.63258 Y29.30064
X48.63258 Y29.19904
X48.81038 Y28.97044
X48.81038 Y28.91964
X49.08978 Y28.79264
X49.44538 Y28.74184
X49.80098 Y28.79264
X50.05498 Y28.94504
X50.23278 Y29.17364
X50.28358 Y29.73244
X50.23278 Y29.98644
X50.05498 Y30.21504
X50.05498 Y30.26584
X49.77558 Y30.39284
X49.41998 Y30.44364
X48.98818 Y30.36744
G04 P0 ( dwell for no time -- G64 should not smooth over this point )
G00 Z5.00000 ( retract )

G00 X70.57818 Y29.45304 ( rapid move to begin. )
F300.00000
G01 Z-0.08000
G04 P0 ( dwell for no time -- G64 should not smooth over this point )
F600.00000
X70.57818 Y29.45304
X70.45118 Y29.40224
X70.22258 Y29.12284
X70.17178 Y28.56404
X70.22258 Y28.31004
X70.40038 Y28.08144
X70.40038 Y28.03064
X70.73058 Y27.85284
X70.73058 Y19.62324
X69.56218 Y18.45484
X68.03818 Y18.45484
X67.91118 Y18.73424
X67.68258 Y18.91204
X67.37778 Y19.01364
X66.81898 Y18.96284
X66.59038 Y18.83584
X66.43798 Y18.58184
X66.36178 Y18.25164
X66.38718 Y17.87064
X66.51418 Y17.59124
X66.74278 Y17.41344
X66.89518 Y17.36264
X66.92058 Y16.47364
X66.59038 Y16.29584
X66.43798 Y16.04184
X66.36178 Y15.71164
X66.38718 Y15.33064
X66.51418 Y15.05124
X66.74278 Y14.87344
X67.04758 Y14.77184
X67.60638 Y14.82264
X67.83498 Y14.94964
X67.98738 Y15.20364
X68.01278 Y15.33064
X68.92718 Y15.33064
X69.05418 Y15.05124
X69.28278 Y14.87344
X69.58758 Y14.77184
X70.14638 Y14.82264
X70.37498 Y14.94964
X70.52738 Y15.20364
X70.60358 Y15.53384
X70.57818 Y15.91484
X70.45118 Y16.19424
X70.22258 Y16.37204
X69.91778 Y16.47364
X69.35898 Y16.42284
X69.13038 Y16.29584
X68.97798 Y16.04184
X68.95258 Y15.91484
X68.03818 Y15.91484
X67.91118 Y16.19424
X67.68258 Y16.37204
X67.53018 Y16.42284
X67.50478 Y17.31184
X67.83498 Y17.48964
X67.98738 Y17.74364
X68.01278 Y17.87064
X69.84158 Y17.87064
X69.99398 Y17.92144
X71.21318 Y19.14064
X71.28938 Y19.26764
X71.31478 Y27.87824
X71.59418 Y28.00524
X71.82278 Y28.28464
X71.87358 Y28.84344
X71.82278 Y29.09744
X71.64498 Y29.32604
X71.64498 Y29.37684
X71.36558 Y29.50384
X71.00998 Y29.55464
X70.57818 Y29.47844
G04 P0 ( dwell for no time -- G64 should not smooth over this point )
G00 Z5.00000 ( retract )

G00 X59.32598 Y28.51324 ( rapid move to begin. )
F300.00000
G01 Z-0.08000
G04 P0 ( dwell for no time -- G64 should not smooth over this point )
F600.00000
X59.32598 Y28.51324
X58.10678 Y27.31944
X58.03058 Y27.19244
X58.03058 Y23.43324
X56.86218 Y22.26484
X40.40298 Y22.26484
X39.15838 Y21.07104
X39.03138 Y20.99484
X30.29378 Y20.99484
X30.14138 Y20.94404
X28.92218 Y19.72484
X20.38778 Y19.72484
X17.94938 Y22.16324
X17.82238 Y22.23944
X13.78378 Y22.26484
X13.63138 Y22.21404
X11.70098 Y20.28364
X10.93898 Y20.28364
X10.68498 Y20.13124
X10.53258 Y19.87724
X10.45638 Y19.54704
X10.45638 Y19.14064
X10.50718 Y18.98824
X10.68498 Y18.75964
X11.09138 Y18.55644
X11.67558 Y18.58184
X11.98038 Y18.73424
X12.18358 Y19.03904
X12.20898 Y19.42004
X12.18358 Y19.80104
X14.06318 Y21.68064
X17.51758 Y21.68064
X19.95598 Y19.24224
X20.08298 Y19.16604
X29.20158 Y19.14064
X29.35398 Y19.19144
X30.57318 Y20.41064
X39.41238 Y20.41064
X40.65698 Y21.60444
X40.78398 Y21.68064
X57.21778 Y21.70604
X58.56398 Y23.00144
X58.61478 Y23.15384
X58.61478 Y26.81144
X59.40218 Y27.64964
X59.83398 Y28.03064
X65.72678 Y28.03064
X66.92058 Y26.88764
X66.89518 Y24.06824
X66.59038 Y23.91584
X66.43798 Y23.66184
X66.36178 Y23.33164
X66.38718 Y22.95064
X66.51418 Y22.67124
X66.74278 Y22.49344
X66.89518 Y22.44264
X66.92058 Y21.55364
X66.59038 Y21.37584
X66.43798 Y21.12184
X66.41258 Y20.99484
X65.80298 Y20.99484
X64.96478 Y20.20744
X64.38058 Y19.57244
X64.38058 Y19.01364
X63.82178 Y19.01364
X63.84718 Y17.31184
X65.52358 Y17.31184
X65.49818 Y19.01364
X64.99018 Y19.01364
X64.96478 Y19.19144
X65.75218 Y20.02964
X66.18398 Y20.41064
X66.38718 Y20.41064
X66.51418 Y20.13124
X66.74278 Y19.95344
X67.04758 Y19.85184
X67.60638 Y19.90264
X67.83498 Y20.02964
X67.98738 Y20.28364
X68.06358 Y20.61384
X68.03818 Y20.99484
X67.91118 Y21.27424
X67.68258 Y21.45204
X67.53018 Y21.50284
X67.50478 Y22.39184
X67.83498 Y22.56964
X67.98738 Y22.82364
X68.06358 Y23.15384
X68.03818 Y23.53484
X67.91118 Y23.81424
X67.68258 Y23.99204
X67.53018 Y24.04284
X67.47938 Y27.24324
X66.15858 Y28.56404
X66.00618 Y28.61484
X59.50378 Y28.61484
X59.32598 Y28.53864
G04 P0 ( dwell for no time -- G64 should not smooth over this point )
G00 Z5.00000 ( retract )

G00 X64.22818 Y26.53204 ( rapid move to begin. )
F300.00000
G01 Z-0.08000
G04 P0 ( dwell for no time -- G64 should not smooth over this point )
F600.00000
X64.22818 Y26.53204
X64.10118 Y26.48124
X63.87258 Y26.20184
X63.82178 Y25.64304
X63.87258 Y25.38904
X64.05038 Y25.16044
X64.05038 Y25.10964
X64.32978 Y24.98264
X64.68538 Y24.93184
X65.04098 Y24.98264
X65.29498 Y25.13504
X65.47278 Y25.36364
X65.52358 Y25.92244
X65.47278 Y26.17644
X65.29498 Y26.40504
X65.29498 Y26.45584
X65.01558 Y26.58284
X64.65998 Y26.63364
X64.22818 Y26.55744
G04 P0 ( dwell for no time -- G64 should not smooth over this point )
G00 Z5.00000 ( retract )

G00 X61.68818 Y26.53204 ( rapid move to begin. )
F300.00000
G01 Z-0.08000
G04 P0 ( dwell for no time -- G64 should not smooth over this point )
F600.00000
X61.68818 Y26.53204
X61.56118 Y26.48124
X61.33258 Y26.20184
X61.28178 Y25.64304
X61.33258 Y25.38904
X61.51038 Y25.16044
X61.51038 Y25.10964
X61.78978 Y24.98264
X62.14538 Y24.93184
X62.50098 Y24.98264
X62.75498 Y25.13504
X62.93278 Y25.36364
X62.98358 Y25.92244
X62.93278 Y26.17644
X62.75498 Y26.40504
X62.75498 Y26.45584
X62.47558 Y26.58284
X62.11998 Y26.63364
X61.68818 Y26.55744
G04 P0 ( dwell for no time -- G64 should not smooth over this point )
G00 Z5.00000 ( retract )

G00 X59.14818 Y26.53204 ( rapid move to begin. )
F300.00000
G01 Z-0.08000
G04 P0 ( dwell for no time -- G64 should not smooth over this point )
F600.00000
X59.14818 Y26.53204
X59.02118 Y26.48124
X58.79258 Y26.20184
X58.74178 Y25.64304
X58.79258 Y25.38904
X58.97038 Y25.16044
X58.97038 Y25.10964
X59.30058 Y24.93184
X59.27518 Y22.11244
X58.15758 Y20.99484
X40.47918 Y20.99484
X40.32678 Y20.94404
X39.10758 Y19.72484
X30.19218 Y19.69944
X28.97298 Y18.48024
X27.37278 Y18.45484
X27.37278 Y18.55644
X27.19498 Y18.78504
X27.19498 Y18.83584
X26.91558 Y18.96284
X26.55998 Y19.01364
X26.20438 Y18.96284
X25.95038 Y18.81044
X25.77258 Y18.58184
X25.72178 Y18.02304
X25.77258 Y17.76904
X25.95038 Y17.54044
X25.95038 Y17.48964
X26.22978 Y17.36264
X26.58538 Y17.31184
X26.94098 Y17.36264
X27.19498 Y17.51504
X27.37278 Y17.74364
X27.37278 Y17.84524
X29.17618 Y17.87064
X29.32858 Y17.92144
X30.54778 Y19.14064
X39.46318 Y19.16604
X40.68238 Y20.38524
X58.51318 Y20.43604
X59.83398 Y21.75684
X59.88478 Y21.90924
X59.88478 Y24.95724
X60.16418 Y25.08424
X60.39278 Y25.36364
X60.44358 Y25.92244
X60.39278 Y26.17644
X60.21498 Y26.40504
X60.21498 Y26.45584
X59.93558 Y26.58284
X59.57998 Y26.63364
X59.14818 Y26.55744
G04 P0 ( dwell for no time -- G64 should not smooth over this point )
G00 Z5.00000 ( retract )

G00 X56.60818 Y26.53204 ( rapid move to begin. )
F300.00000
G01 Z-0.08000
G04 P0 ( dwell for no time -- G64 should not smooth over this point )
F600.00000
X56.60818 Y26.53204
X56.48118 Y26.48124
X56.25258 Y26.20184
X56.20178 Y25.64304
X56.25258 Y25.38904
X56.43038 Y25.16044
X56.43038 Y25.10964
X56.76058 Y24.93184
X56.76058 Y24.72864
X55.61758 Y23.53484
X40.40298 Y23.50944
X39.10758 Y22.26484
X30.19218 Y22.23944
X28.97298 Y21.02024
X27.37278 Y20.99484
X27.37278 Y21.09644
X27.19498 Y21.32504
X27.19498 Y21.37584
X26.91558 Y21.50284
X26.55998 Y21.55364
X26.20438 Y21.50284
X25.95038 Y21.35044
X25.77258 Y21.12184
X25.72178 Y20.56304
X25.77258 Y20.30904
X25.95038 Y20.08044
X25.95038 Y20.02964
X26.22978 Y19.90264
X26.58538 Y19.85184
X26.94098 Y19.90264
X27.19498 Y20.05504
X27.37278 Y20.28364
X27.37278 Y20.38524
X29.17618 Y20.41064
X29.32858 Y20.46144
X30.54778 Y21.68064
X39.46318 Y21.70604
X40.68238 Y22.92524
X55.89698 Y22.95064
X56.73518 Y23.73804
X57.31938 Y24.37304
X57.34478 Y24.95724
X57.62418 Y25.08424
X57.85278 Y25.36364
X57.90358 Y25.92244
X57.85278 Y26.17644
X57.67498 Y26.40504
X57.67498 Y26.45584
X57.39558 Y26.58284
X57.03998 Y26.63364
X56.60818 Y26.55744
G04 P0 ( dwell for no time -- G64 should not smooth over this point )
G00 Z5.00000 ( retract )

G00 X15.96818 Y21.45204 ( rapid move to begin. )
F300.00000
G01 Z-0.08000
G04 P0 ( dwell for no time -- G64 should not smooth over this point )
F600.00000
X15.96818 Y21.45204
X15.84118 Y21.40124
X15.61258 Y21.12184
X15.61258 Y21.02024
X15.02838 Y20.99484
X14.19018 Y20.20744
X13.60598 Y19.57244
X13.58058 Y16.75304
X14.36798 Y15.91484
X15.00298 Y15.33064
X22.52138 Y15.33064
X23.35958 Y14.54324
X23.74058 Y14.11144
X23.74058 Y11.67304
X24.52798 Y10.83484
X25.16298 Y10.25064
X27.04258 Y10.25064
X27.04258 Y10.14904
X27.22038 Y9.92044
X27.22038 Y9.86964
X27.49978 Y9.74264
X27.85538 Y9.69184
X28.21098 Y9.74264
X28.46498 Y9.89504
X28.64278 Y10.12364
X28.69358 Y10.68244
X28.64278 Y10.93644
X28.46498 Y11.16504
X28.46498 Y11.21584
X28.18558 Y11.34284
X27.82998 Y11.39364
X27.47438 Y11.34284
X27.22038 Y11.19044
X27.04258 Y10.96184
X27.04258 Y10.86024
X25.46778 Y10.86024
X24.35018 Y11.97784
X24.32478 Y14.49244
X23.53738 Y15.33064
X22.90238 Y15.91484
X15.38398 Y15.91484
X14.54578 Y16.70224
X14.16478 Y17.13404
X14.16478 Y19.26764
X15.28238 Y20.38524
X15.61258 Y20.41064
X15.61258 Y20.30904
X15.79038 Y20.08044
X15.79038 Y20.02964
X16.06978 Y19.90264
X16.42538 Y19.85184
X16.78098 Y19.90264
X17.03498 Y20.05504
X17.21278 Y20.28364
X17.26358 Y20.84244
X17.21278 Y21.09644
X17.03498 Y21.32504
X17.03498 Y21.37584
X16.75558 Y21.50284
X16.39998 Y21.55364
X15.96818 Y21.47744
G04 P0 ( dwell for no time -- G64 should not smooth over this point )
G00 Z5.00000 ( retract )

G00 X40.30138 Y19.62324 ( rapid move to begin. )
F300.00000
G01 Z-0.08000
G04 P0 ( dwell for no time -- G64 should not smooth over this point )
F600.00000
X40.30138 Y19.62324
X40.25058 Y19.49624
X40.25058 Y17.05784
X37.07558 Y13.88284
X36.71998 Y13.93364
X36.36438 Y13.88284
X36.11038 Y13.73044
X35.93258 Y13.50184
X35.88178 Y12.94304
X35.93258 Y12.68904
X36.11038 Y12.46044
X36.11038 Y12.40964
X36.38978 Y12.28264
X36.74538 Y12.23184
X37.10098 Y12.28264
X37.35498 Y12.43504
X37.53278 Y12.66364
X37.58358 Y13.22244
X37.53278 Y13.37484
X40.75858 Y16.65144
X40.83478 Y16.77844
X40.83478 Y19.11524
X53.00138 Y19.14064
X53.63638 Y18.55644
X53.68718 Y18.45484
X53.66178 Y18.07384
X53.73798 Y17.74364
X53.89038 Y17.48964
X54.16978 Y17.36264
X54.52538 Y17.31184
X54.88098 Y17.36264
X55.13498 Y17.51504
X55.31278 Y17.74364
X55.36358 Y18.30244
X55.31278 Y18.55644
X55.13498 Y18.78504
X55.13498 Y18.83584
X54.85558 Y18.96284
X54.49998 Y19.01364
X54.19518 Y18.96284
X53.48398 Y19.67404
X53.33158 Y19.72484
X40.35218 Y19.69944
X40.30138 Y19.64864
G04 P0 ( dwell for no time -- G64 should not smooth over this point )
G00 Z5.00000 ( retract )

G00 X61.68818 Y18.91204 ( rapid move to begin. )
F300.00000
G01 Z-0.08000
G04 P0 ( dwell for no time -- G64 should not smooth over this point )
F600.00000
X61.68818 Y18.91204
X61.56118 Y18.86124
X61.33258 Y18.58184
X61.28178 Y18.02304
X61.33258 Y17.76904
X61.51038 Y17.54044
X61.51038 Y17.48964
X61.84058 Y17.31184
X61.86598 Y16.72764
X64.38058 Y14.16224
X64.38058 Y10.40304
X66.79358 Y7.93924
X67.07298 Y7.71064
X68.29218 Y7.71064
X69.46058 Y6.54224
X69.43518 Y6.36444
X68.85098 Y6.33904
X68.85098 Y4.56104
X70.65438 Y4.58644
X70.65438 Y6.36444
X70.04478 Y6.36444
X70.04478 Y6.87244
X69.25738 Y7.71064
X68.62238 Y8.29484
X67.40318 Y8.29484
X64.96478 Y10.73324
X64.96478 Y14.49244
X62.45018 Y17.05784
X62.42478 Y17.33724
X62.70418 Y17.46424
X62.93278 Y17.74364
X62.98358 Y18.30244
X62.93278 Y18.55644
X62.75498 Y18.78504
X62.75498 Y18.83584
X62.47558 Y18.96284
X62.11998 Y19.01364
X61.68818 Y18.93744
G04 P0 ( dwell for no time -- G64 should not smooth over this point )
G00 Z5.00000 ( retract )

G00 X59.14818 Y18.91204 ( rapid move to begin. )
F300.00000
G01 Z-0.08000
G04 P0 ( dwell for no time -- G64 should not smooth over this point )
F600.00000
X59.14818 Y18.91204
X59.02118 Y18.86124
X58.79258 Y18.58184
X58.74178 Y18.02304
X58.79258 Y17.76904
X58.97038 Y17.54044
X58.97038 Y17.48964
X59.24978 Y17.36264
X59.60538 Y17.31184
X59.91018 Y17.36264
X63.11058 Y14.16224
X63.13598 Y9.10764
X64.43138 Y7.76144
X64.58378 Y7.71064
X65.77758 Y7.68524
X66.89518 Y6.56764
X66.92058 Y6.33904
X66.81898 Y6.33904
X66.56498 Y6.18664
X66.38718 Y5.95804
X66.31098 Y5.62784
X66.31098 Y5.22144
X66.43798 Y4.94204
X66.61578 Y4.71344
X66.89518 Y4.58644
X67.27618 Y4.56104
X67.63178 Y4.61184
X67.88578 Y4.76424
X68.06358 Y4.99284
X68.11438 Y5.34844
X68.11438 Y5.75484
X67.98738 Y6.03424
X67.78418 Y6.23744
X67.50478 Y6.36444
X67.50478 Y6.87244
X66.71738 Y7.71064
X66.08238 Y8.29484
X64.86318 Y8.29484
X63.69478 Y9.46324
X63.66938 Y14.51784
X60.39278 Y17.84524
X60.44358 Y17.99764
X60.39278 Y18.55644
X60.21498 Y18.78504
X60.21498 Y18.83584
X59.93558 Y18.96284
X59.57998 Y19.01364
X59.14818 Y18.93744
G04 P0 ( dwell for no time -- G64 should not smooth over this point )
G00 Z5.00000 ( retract )

G00 X56.60818 Y18.91204 ( rapid move to begin. )
F300.00000
G01 Z-0.08000
G04 P0 ( dwell for no time -- G64 should not smooth over this point )
F600.00000
X56.60818 Y18.91204
X56.48118 Y18.86124
X56.25258 Y18.58184
X56.20178 Y18.02304
X56.25258 Y17.76904
X56.43038 Y17.54044
X56.43038 Y17.48964
X56.70978 Y17.36264
X57.06538 Y17.31184
X57.37018 Y17.36264
X61.33258 Y13.40024
X61.28178 Y13.24784
X61.33258 Y12.68904
X61.51038 Y12.46044
X61.51038 Y12.40964
X61.78978 Y12.28264
X62.14538 Y12.23184
X62.50098 Y12.28264
X62.75498 Y12.43504
X62.93278 Y12.66364
X62.98358 Y13.22244
X62.93278 Y13.47644
X62.75498 Y13.70504
X62.75498 Y13.75584
X62.47558 Y13.88284
X62.11998 Y13.93364
X61.81518 Y13.88284
X57.85278 Y17.84524
X57.90358 Y17.99764
X57.85278 Y18.55644
X57.67498 Y18.78504
X57.67498 Y18.83584
X57.39558 Y18.96284
X57.03998 Y19.01364
X56.60818 Y18.93744
G04 P0 ( dwell for no time -- G64 should not smooth over this point )
G00 Z5.00000 ( retract )

G00 X51.52818 Y18.91204 ( rapid move to begin. )
F300.00000
G01 Z-0.08000
G04 P0 ( dwell for no time -- G64 should not smooth over this point )
F600.00000
X51.52818 Y18.91204
X51.40118 Y18.86124
X51.17258 Y18.58184
X51.12178 Y18.02304
X51.17258 Y17.76904
X51.35038 Y17.54044
X51.35038 Y17.48964
X51.62978 Y17.36264
X51.98538 Y17.31184
X52.29018 Y17.36264
X53.91578 Y15.73704
X54.34758 Y15.35604
X56.25258 Y15.33064
X56.25258 Y15.22904
X56.43038 Y15.00044
X56.43038 Y14.94964
X56.70978 Y14.82264
X57.06538 Y14.77184
X57.42098 Y14.82264
X57.67498 Y14.97504
X57.85278 Y15.20364
X57.90358 Y15.76244
X57.85278 Y16.01644
X57.67498 Y16.24504
X57.67498 Y16.29584
X57.39558 Y16.42284
X57.03998 Y16.47364
X56.68438 Y16.42284
X56.43038 Y16.27044
X56.25258 Y16.04184
X56.25258 Y15.94024
X54.67778 Y15.94024
X52.77278 Y17.84524
X52.82358 Y17.99764
X52.77278 Y18.55644
X52.59498 Y18.78504
X52.59498 Y18.83584
X52.31558 Y18.96284
X51.95998 Y19.01364
X51.52818 Y18.93744
G04 P0 ( dwell for no time -- G64 should not smooth over this point )
G00 Z5.00000 ( retract )

G00 X48.98818 Y18.91204 ( rapid move to begin. )
F300.00000
G01 Z-0.08000
G04 P0 ( dwell for no time -- G64 should not smooth over this point )
F600.00000
X48.98818 Y18.91204
X48.86118 Y18.86124
X48.63258 Y18.58184
X48.58178 Y18.02304
X48.63258 Y17.76904
X48.81038 Y17.54044
X48.81038 Y17.48964
X49.08978 Y17.36264
X49.54698 Y17.31184
X51.12178 Y15.73704
X51.14718 Y15.35604
X51.35038 Y14.94964
X51.62978 Y14.82264
X52.08698 Y14.77184
X54.22058 Y12.63824
X54.37298 Y12.58744
X59.35138 Y12.58744
X61.28178 Y10.65704
X61.30718 Y10.27604
X61.51038 Y9.86964
X61.78978 Y9.74264
X62.14538 Y9.69184
X62.50098 Y9.74264
X62.75498 Y9.89504
X62.93278 Y10.12364
X62.98358 Y10.68244
X62.93278 Y10.93644
X62.75498 Y11.16504
X62.75498 Y11.21584
X62.47558 Y11.34284
X61.94218 Y11.41904
X59.91018 Y13.45104
X59.78318 Y13.52724
X54.72858 Y13.55264
X53.10298 Y15.17824
X52.82358 Y15.50844
X52.79818 Y15.88944
X52.59498 Y16.29584
X52.31558 Y16.42284
X51.78218 Y16.49904
X50.28358 Y18.04844
X50.25818 Y18.42944
X50.05498 Y18.83584
X49.77558 Y18.96284
X49.41998 Y19.01364
X48.98818 Y18.93744
G04 P0 ( dwell for no time -- G64 should not smooth over this point )
G00 Z5.00000 ( retract )

G00 X43.90818 Y18.91204 ( rapid move to begin. )
F300.00000
G01 Z-0.08000
G04 P0 ( dwell for no time -- G64 should not smooth over this point )
F600.00000
X43.90818 Y18.91204
X43.78118 Y18.86124
X43.55258 Y18.58184
X43.50178 Y18.02304
X43.55258 Y17.76904
X43.73038 Y17.54044
X43.73038 Y17.48964
X44.00978 Y17.36264
X44.36538 Y17.31184
X44.67018 Y17.36264
X47.87058 Y14.16224
X47.87058 Y12.94304
X48.65798 Y12.10484
X49.29298 Y11.52064
X53.05218 Y11.52064
X54.27138 Y10.30144
X54.42378 Y10.25064
X56.25258 Y10.25064
X56.25258 Y10.14904
X56.43038 Y9.92044
X56.43038 Y9.86964
X56.76058 Y9.69184
X56.73518 Y6.26284
X56.45578 Y6.13584
X56.27798 Y5.90724
X56.20178 Y5.57704
X56.22718 Y5.19604
X56.43038 Y4.78964
X56.70978 Y4.66264
X57.06538 Y4.61184
X57.42098 Y4.66264
X57.67498 Y4.81504
X57.85278 Y5.04364
X57.90358 Y5.60244
X57.85278 Y5.85644
X57.67498 Y6.08504
X57.67498 Y6.13584
X57.34478 Y6.31364
X57.37018 Y9.74264
X57.64958 Y9.86964
X57.82738 Y10.09824
X57.90358 Y10.42844
X57.87818 Y10.80944
X57.67498 Y11.21584
X57.39558 Y11.34284
X57.03998 Y11.39364
X56.68438 Y11.34284
X56.43038 Y11.19044
X56.25258 Y10.96184
X56.25258 Y10.86024
X54.67778 Y10.86024
X53.38238 Y12.10484
X49.62318 Y12.10484
X48.45478 Y13.27324
X48.45478 Y14.49244
X45.15278 Y17.84524
X45.20358 Y17.99764
X45.15278 Y18.55644
X44.97498 Y18.78504
X44.97498 Y18.83584
X44.69558 Y18.96284
X44.33998 Y19.01364
X43.90818 Y18.93744
G04 P0 ( dwell for no time -- G64 should not smooth over this point )
G00 Z5.00000 ( retract )

G00 X41.36818 Y18.91204 ( rapid move to begin. )
F300.00000
G01 Z-0.08000
G04 P0 ( dwell for no time -- G64 should not smooth over this point )
F600.00000
X41.36818 Y18.91204
X41.24118 Y18.86124
X41.01258 Y18.58184
X40.96178 Y18.02304
X41.01258 Y17.76904
X41.19038 Y17.54044
X41.19038 Y17.48964
X41.52058 Y17.31184
X41.54598 Y16.72764
X42.84138 Y15.38144
X42.99378 Y15.33064
X45.43218 Y15.33064
X46.60058 Y14.16224
X46.60058 Y11.72384
X46.65138 Y11.57144
X47.87058 Y10.35224
X47.99758 Y10.27604
X51.17258 Y10.25064
X51.17258 Y10.14904
X51.35038 Y9.92044
X51.35038 Y9.86964
X51.68058 Y9.69184
X51.65518 Y6.26284
X51.37578 Y6.13584
X51.19798 Y5.90724
X51.12178 Y5.57704
X51.14718 Y5.19604
X51.35038 Y4.78964
X51.62978 Y4.66264
X51.98538 Y4.61184
X52.34098 Y4.66264
X52.59498 Y4.81504
X52.77278 Y5.04364
X52.82358 Y5.60244
X52.77278 Y5.85644
X52.59498 Y6.08504
X52.59498 Y6.13584
X52.26478 Y6.31364
X52.29018 Y9.74264
X52.56958 Y9.86964
X52.74738 Y10.09824
X52.82358 Y10.42844
X52.79818 Y10.80944
X52.59498 Y11.21584
X52.31558 Y11.34284
X51.95998 Y11.39364
X51.60438 Y11.34284
X51.35038 Y11.19044
X51.17258 Y10.96184
X51.17258 Y10.86024
X48.35318 Y10.83484
X47.18478 Y12.00324
X47.18478 Y14.44164
X47.13398 Y14.59404
X45.91478 Y15.81324
X45.78778 Y15.88944
X43.27318 Y15.91484
X42.10478 Y17.08324
X42.13018 Y17.36264
X42.40958 Y17.48964
X42.58738 Y17.71824
X42.66358 Y18.04844
X42.63818 Y18.42944
X42.43498 Y18.83584
X42.15558 Y18.96284
X41.79998 Y19.01364
X41.36818 Y18.93744
G04 P0 ( dwell for no time -- G64 should not smooth over this point )
G00 Z5.00000 ( retract )

G00 X38.82818 Y18.91204 ( rapid move to begin. )
F300.00000
G01 Z-0.08000
G04 P0 ( dwell for no time -- G64 should not smooth over this point )
F600.00000
X38.82818 Y18.91204
X38.70118 Y18.86124
X38.47258 Y18.58184
X38.42178 Y18.02304
X38.47258 Y17.87064
X37.83758 Y17.18484
X36.61838 Y17.18484
X35.78018 Y16.39744
X35.19598 Y15.76244
X35.14518 Y11.34284
X34.86578 Y11.21584
X34.68798 Y10.98724
X34.61178 Y10.65704
X34.63718 Y10.27604
X34.84038 Y9.86964
X35.11978 Y9.74264
X35.47538 Y9.69184
X35.83098 Y9.74264
X36.08498 Y9.89504
X36.26278 Y10.12364
X36.31358 Y10.68244
X36.26278 Y10.93644
X36.08498 Y11.16504
X36.08498 Y11.21584
X35.75478 Y11.39364
X35.75478 Y15.45764
X36.87238 Y16.57524
X38.06618 Y16.60064
X38.21858 Y16.65144
X38.92978 Y17.36264
X39.28538 Y17.31184
X39.64098 Y17.36264
X39.89498 Y17.51504
X40.07278 Y17.74364
X40.12358 Y18.30244
X40.07278 Y18.55644
X39.89498 Y18.78504
X39.89498 Y18.83584
X39.61558 Y18.96284
X39.25998 Y19.01364
X38.82818 Y18.93744
G04 P0 ( dwell for no time -- G64 should not smooth over this point )
G00 Z5.00000 ( retract )

G00 X36.28818 Y18.91204 ( rapid move to begin. )
F300.00000
G01 Z-0.08000
G04 P0 ( dwell for no time -- G64 should not smooth over this point )
F600.00000
X36.28818 Y18.91204
X36.16118 Y18.86124
X35.93258 Y18.58184
X35.88178 Y18.02304
X35.93258 Y17.87064
X33.92598 Y15.81324
X33.90058 Y13.90824
X33.62118 Y13.78124
X33.39258 Y13.50184
X33.34178 Y12.94304
X33.39258 Y12.68904
X33.57038 Y12.46044
X33.57038 Y12.40964
X33.84978 Y12.28264
X34.20538 Y12.23184
X34.56098 Y12.28264
X34.81498 Y12.43504
X34.99278 Y12.66364
X35.04358 Y13.22244
X34.99278 Y13.47644
X34.81498 Y13.70504
X34.81498 Y13.75584
X34.48478 Y13.93364
X34.48478 Y15.45764
X36.38978 Y17.36264
X36.74538 Y17.31184
X37.10098 Y17.36264
X37.35498 Y17.51504
X37.53278 Y17.74364
X37.58358 Y18.30244
X37.53278 Y18.55644
X37.35498 Y18.78504
X37.35498 Y18.83584
X37.07558 Y18.96284
X36.71998 Y19.01364
X36.28818 Y18.93744
G04 P0 ( dwell for no time -- G64 should not smooth over this point )
G00 Z5.00000 ( retract )

G00 X33.74818 Y18.91204 ( rapid move to begin. )
F300.00000
G01 Z-0.08000
G04 P0 ( dwell for no time -- G64 should not smooth over this point )
F600.00000
X33.74818 Y18.91204
X33.62118 Y18.86124
X33.39258 Y18.58184
X33.34178 Y18.02304
X33.39258 Y17.87064
X31.38598 Y15.81324
X31.36058 Y13.90824
X31.08118 Y13.78124
X30.85258 Y13.50184
X30.80178 Y12.94304
X30.85258 Y12.68904
X31.03038 Y12.46044
X31.03038 Y12.40964
X31.30978 Y12.28264
X31.66538 Y12.23184
X32.02098 Y12.28264
X32.27498 Y12.43504
X32.45278 Y12.66364
X32.50358 Y13.22244
X32.45278 Y13.47644
X32.27498 Y13.70504
X32.27498 Y13.75584
X31.94478 Y13.93364
X31.94478 Y15.45764
X33.84978 Y17.36264
X34.20538 Y17.31184
X34.56098 Y17.36264
X34.81498 Y17.51504
X34.99278 Y17.74364
X35.04358 Y18.30244
X34.99278 Y18.55644
X34.81498 Y18.78504
X34.81498 Y18.83584
X34.53558 Y18.96284
X34.17998 Y19.01364
X33.74818 Y18.93744
G04 P0 ( dwell for no time -- G64 should not smooth over this point )
G00 Z5.00000 ( retract )

G00 X31.20818 Y18.91204 ( rapid move to begin. )
F300.00000
G01 Z-0.08000
G04 P0 ( dwell for no time -- G64 should not smooth over this point )
F600.00000
X31.20818 Y18.91204
X31.08118 Y18.86124
X30.85258 Y18.58184
X30.85258 Y18.48024
X30.26838 Y18.45484
X29.43018 Y17.66744
X28.84598 Y17.03244
X28.82058 Y13.90824
X28.54118 Y13.78124
X28.31258 Y13.50184
X28.26178 Y12.94304
X28.31258 Y12.68904
X28.49038 Y12.46044
X28.49038 Y12.40964
X28.76978 Y12.28264
X29.12538 Y12.23184
X29.48098 Y12.28264
X29.73498 Y12.43504
X29.91278 Y12.66364
X29.96358 Y13.22244
X29.91278 Y13.47644
X29.73498 Y13.70504
X29.73498 Y13.75584
X29.40478 Y13.93364
X29.43018 Y16.75304
X30.54778 Y17.87064
X30.85258 Y17.87064
X30.85258 Y17.76904
X31.03038 Y17.54044
X31.03038 Y17.48964
X31.30978 Y17.36264
X31.66538 Y17.31184
X32.02098 Y17.36264
X32.27498 Y17.51504
X32.45278 Y17.74364
X32.50358 Y18.30244
X32.45278 Y18.55644
X32.27498 Y18.78504
X32.27498 Y18.83584
X31.99558 Y18.96284
X31.63998 Y19.01364
X31.20818 Y18.93744
G04 P0 ( dwell for no time -- G64 should not smooth over this point )
G00 Z5.00000 ( retract )

G00 X15.96818 Y18.91204 ( rapid move to begin. )
F300.00000
G01 Z-0.08000
G04 P0 ( dwell for no time -- G64 should not smooth over this point )
F600.00000
X15.96818 Y18.91204
X15.84118 Y18.86124
X15.61258 Y18.58184
X15.56178 Y18.02304
X15.61258 Y17.76904
X15.79038 Y17.54044
X15.79038 Y17.48964
X16.06978 Y17.36264
X16.42538 Y17.31184
X16.78098 Y17.36264
X17.03498 Y17.51504
X17.21278 Y17.74364
X17.21278 Y17.84524
X23.86758 Y17.84524
X26.28058 Y15.38144
X26.25518 Y13.88284
X25.97578 Y13.75584
X25.79798 Y13.52724
X25.72178 Y13.19704
X25.74718 Y12.81604
X25.95038 Y12.40964
X26.22978 Y12.28264
X26.58538 Y12.23184
X26.94098 Y12.28264
X27.19498 Y12.43504
X27.37278 Y12.66364
X27.42358 Y13.22244
X27.37278 Y13.47644
X27.19498 Y13.70504
X27.19498 Y13.75584
X26.86478 Y13.93364
X26.86478 Y15.76244
X24.45178 Y18.22624
X24.17238 Y18.45484
X17.21278 Y18.45484
X17.21278 Y18.55644
X17.03498 Y18.78504
X17.03498 Y18.83584
X16.75558 Y18.96284
X16.39998 Y19.01364
X15.96818 Y18.93744
G04 P0 ( dwell for no time -- G64 should not smooth over this point )
G00 Z5.00000 ( retract )

G00 X43.50178 Y14.31464 ( rapid move to begin. )
F300.00000
G01 Z-0.08000
G04 P0 ( dwell for no time -- G64 should not smooth over this point )
F600.00000
X43.50178 Y14.31464
X43.19698 Y14.23844
X42.46038 Y13.75584
X41.97778 Y13.01924
X41.87618 Y12.71444
X41.79998 Y11.97784
X41.92698 Y11.29204
X42.18098 Y10.73324
X42.56198 Y10.30144
X43.17158 Y9.89504
X43.83198 Y9.74264
X44.21298 Y9.71724
X44.89878 Y9.84424
X45.20358 Y9.94584
X45.81318 Y10.35224
X46.16878 Y10.80944
X46.39738 Y11.39364
X46.47358 Y11.72384
X46.49898 Y12.10484
X46.34658 Y12.96844
X46.14338 Y13.37484
X45.76238 Y13.80664
X45.27978 Y14.13684
X44.69558 Y14.36544
X44.13678 Y14.41624
X43.50178 Y14.34004
G04 P0 ( dwell for no time -- G64 should not smooth over this point )
G00 Z5.00000 ( retract )

G00 X18.50818 Y14.31464 ( rapid move to begin. )
F300.00000
G01 Z-0.08000
G04 P0 ( dwell for no time -- G64 should not smooth over this point )
F600.00000
X18.50818 Y14.31464
X18.20338 Y14.23844
X17.46678 Y13.75584
X16.98418 Y13.01924
X16.88258 Y12.71444
X16.80638 Y11.97784
X16.93338 Y11.29204
X17.18738 Y10.73324
X17.56838 Y10.30144
X18.17798 Y9.89504
X18.83838 Y9.74264
X19.21938 Y9.71724
X19.90518 Y9.84424
X20.20998 Y9.94584
X20.81958 Y10.35224
X21.17518 Y10.80944
X21.40378 Y11.39364
X21.47998 Y11.72384
X21.50538 Y12.10484
X21.35298 Y12.96844
X21.14978 Y13.37484
X20.76878 Y13.80664
X20.28618 Y14.13684
X19.70198 Y14.36544
X19.14318 Y14.41624
X18.50818 Y14.34004
G04 P0 ( dwell for no time -- G64 should not smooth over this point )
G00 Z5.00000 ( retract )

G00 X82.16058 Y9.56484 ( rapid move to begin. )
F300.00000
G01 Z-0.08000
G04 P0 ( dwell for no time -- G64 should not smooth over this point )
F600.00000
X82.16058 Y9.56484
X81.85578 Y9.48864
X81.34778 Y9.18384
X80.91598 Y8.80284
X80.73818 Y8.57424
X80.38258 Y7.71064
X80.33178 Y7.35504
X80.35718 Y6.56764
X80.48418 Y6.08504
X80.68738 Y5.67864
X81.04298 Y5.22144
X81.50018 Y4.86584
X81.90658 Y4.66264
X82.38918 Y4.53564
X83.17658 Y4.51024
X83.53218 Y4.56104
X84.39578 Y4.91664
X84.82758 Y5.29764
X85.31018 Y6.03424
X85.41178 Y6.33904
X85.48798 Y7.07564
X85.46258 Y7.65984
X85.10698 Y8.52344
X84.75138 Y8.98064
X84.01478 Y9.46324
X83.37978 Y9.64104
X82.59238 Y9.66644
X82.16058 Y9.59024
G04 P0 ( dwell for no time -- G64 should not smooth over this point )
G00 Z5.00000 ( retract )

G00 X10.96438 Y9.56484 ( rapid move to begin. )
F300.00000
G01 Z-0.08000
G04 P0 ( dwell for no time -- G64 should not smooth over this point )
F600.00000
X10.96438 Y9.56484
X10.65958 Y9.48864
X10.15158 Y9.18384
X9.71978 Y8.80284
X9.54198 Y8.57424
X9.18638 Y7.71064
X9.13558 Y7.35504
X9.16098 Y6.56764
X9.28798 Y6.08504
X9.49118 Y5.67864
X9.84678 Y5.22144
X10.30398 Y4.86584
X10.71038 Y4.66264
X11.19298 Y4.53564
X11.98038 Y4.51024
X12.33598 Y4.56104
X13.19958 Y4.91664
X13.63138 Y5.29764
X14.11398 Y6.03424
X14.21558 Y6.33904
X14.29178 Y7.07564
X14.26638 Y7.65984
X13.91078 Y8.52344
X13.55518 Y8.98064
X12.81858 Y9.46324
X12.18358 Y9.64104
X11.39618 Y9.66644
X10.96438 Y9.59024

G04 P0 ( dwell for no time -- G64 should not smooth over this point )
G00 Z10.00000 ( retract )

M5 ( Spindle off. )
M9 ( Coolant off. )
M2 ( Program end. )

