( pcb2gcode 1.2.1 )

( This file uses 7 drill bit sizes. )
( Bit sizes: [0.508mm] [0.686mm] [0.813mm] [1.016mm] [2.301mm] [2.499mm] [3.5mm] )

G94       (Millimeters per minute feed rate.)
G21       (Units == Millimeters.)
G90       (Absolute coordinates.)
S10000     (RPM spindle speed.)

G00 Z10.00000 (Retract)
T1
M5      (Spindle stop.)
M6      (Tool change.)
(MSG, Change tool bit to drill size 0.50800 mm)
M0      (Temporary machine stop.)
M3      (Spindle on clockwise.)

G81 R5.00000 Z-2.50000 F400.00000 X8.63040 Y215.32004
X8.63040 Y217.82004

G00 Z10.00000 (Retract)
T2
M5      (Spindle stop.)
M6      (Tool change.)
(MSG, Change tool bit to drill size 0.68600 mm)
M0      (Temporary machine stop.)
M3      (Spindle on clockwise.)

G81 R5.00000 Z-2.50000 F400.00000 X12.44040 Y231.81004
X17.52040 Y224.19004
X17.52040 Y226.73004
X17.52040 Y229.27004
X20.06040 Y231.81004
X21.33040 Y214.15704
X21.33040 Y216.18904
X22.60040 Y231.81004
X23.87040 Y214.15704
X23.87040 Y216.18904
X25.14040 Y221.65004
X25.14040 Y229.27004
X27.68040 Y221.65004
X27.68040 Y224.19004
X27.68040 Y226.73004
X27.68040 Y229.27004
X30.22040 Y219.11004
X30.22040 Y226.73004
X32.76040 Y208.95004
X32.76040 Y211.49004
X32.76040 Y219.11004
X32.76040 Y226.73004
X32.76040 Y231.81004
X35.30040 Y219.11004
X35.30040 Y226.73004
X35.30040 Y239.43004
X37.84040 Y219.11004
X37.84040 Y226.73004
X37.84040 Y229.27004
X37.84040 Y234.35004
X37.84040 Y239.43004
X40.38040 Y215.30004
X40.38040 Y219.11004
X40.38040 Y226.73004
X42.92040 Y208.95004
X42.92040 Y211.49004
X42.92040 Y215.30004
X42.92040 Y219.11004
X42.92040 Y226.73004
X42.92040 Y229.27004
X42.92040 Y234.35004
X42.92040 Y239.43004
X45.46040 Y205.14004
X45.46040 Y215.30004
X45.46040 Y219.11004
X45.46040 Y226.73004
X45.46040 Y229.27004
X45.46040 Y239.43004
X48.00040 Y219.11004
X48.00040 Y226.73004
X50.54040 Y219.11004
X50.54040 Y226.73004
X53.08040 Y219.11004
X53.08040 Y226.73004
X55.62040 Y219.11004
X55.62040 Y226.73004
X58.16040 Y214.03004
X58.16040 Y219.11004
X58.16040 Y226.73004
X58.16040 Y231.81004
X59.43040 Y211.49004
X59.43040 Y234.35004
X60.70040 Y214.03004
X60.70040 Y219.11004
X60.70040 Y226.73004
X60.70040 Y231.81004
X61.97040 Y211.49004
X61.97040 Y234.35004
X63.24040 Y214.03004
X63.24040 Y219.11004
X63.24040 Y226.73004
X63.24040 Y231.81004
X64.51040 Y211.49004
X64.51040 Y234.35004
X65.78040 Y214.03004
X65.78040 Y231.81004
X67.05040 Y211.49004
X67.05040 Y234.35004
X68.32040 Y214.03004
X68.32040 Y224.19004
X68.32040 Y226.73004
X68.32040 Y231.81004
X78.48040 Y224.19004
X78.48040 Y226.73004

G00 Z10.00000 (Retract)
T3
M5      (Spindle stop.)
M6      (Tool change.)
(MSG, Change tool bit to drill size 0.81300 mm)
M0      (Temporary machine stop.)
M3      (Spindle on clockwise.)

G81 R5.00000 Z-2.50000 F400.00000 X32.76040 Y234.35004
X32.76040 Y241.97004

G00 Z10.00000 (Retract)
T4
M5      (Spindle stop.)
M6      (Tool change.)
(MSG, Change tool bit to drill size 1.01600 mm)
M0      (Temporary machine stop.)
M3      (Spindle on clockwise.)

G81 R5.00000 Z-2.50000 F400.00000 X25.14040 Y239.43004
X27.68040 Y239.43004
X30.22040 Y239.43004
X83.56040 Y220.38004
X83.56040 Y222.92004
X83.56040 Y225.46004
X86.10040 Y220.38004
X86.10040 Y222.92004
X86.10040 Y225.46004

G00 Z10.00000 (Retract)
T5
M5      (Spindle stop.)
M6      (Tool change.)
(MSG, Change tool bit to drill size 2.30100 mm)
M0      (Temporary machine stop.)
M3      (Spindle on clockwise.)

G81 R5.00000 Z-2.50000 F400.00000 X16.60140 Y211.49004
X28.59940 Y211.49004

G00 Z10.00000 (Retract)
T6
M5      (Spindle stop.)
M6      (Tool change.)
(MSG, Change tool bit to drill size 2.49900 mm)
M0      (Temporary machine stop.)
M3      (Spindle on clockwise.)

G81 R5.00000 Z-2.50000 F400.00000 X11.99040 Y207.39004
X11.99040 Y237.78904
X83.18940 Y207.39004
X83.18940 Y237.78904

G00 Z10.00000 (Retract)
T7
M5      (Spindle stop.)
M6      (Tool change.)
(MSG, Change tool bit to drill size 3.50000 mm)
M0      (Temporary machine stop.)
M3      (Spindle on clockwise.)

G81 R5.00000 Z-2.50000 F400.00000 X50.74140 Y213.02904
X50.74140 Y232.81104
X75.73940 Y213.02904
X75.73940 Y232.81104

G00 Z10.00000 (All done -- retract)

M5      (Spindle off.)
M9      (Coolant off.)
M2      (Program end.)

