( pcb2gcode 1.2.1 )
( Software-independent Gcode )
      
G94 ( Millimeters per minute feed rate. )
G21 ( Units == Millimeters. )

G90 ( Absolute coordinates. )
S10000 ( RPM spindle speed. )
G64 P0.05080 ( set maximum deviation from commanded toolpath )
F600.00000 ( Feedrate. )

F600.00000 ( Feedrate. )
M3 ( Spindle on clockwise. )
G04 P0 ( dwell for no time -- G64 should not smooth over this point )
G00 Z5.00000 ( retract )

G00 X7.03358 Y45.58824 ( rapid move to begin. )
G01 Z-2.50000 F300.00000 ( plunge. )
G04 P0 ( dwell for no time -- G64 should not smooth over this point )
F600.00000
X7.03358 Y45.58824
X7.00818 Y42.38784
X6.85578 Y41.72744
X6.57638 Y41.19404
X6.19538 Y40.76224
X5.48418 Y40.25424
X4.87458 Y40.05104
X4.16338 Y39.94944
X0.30258 Y39.94944
X0.17558 Y39.87324
X0.16405 Y25.02834
Z-0.60000
X0.16172 Y22.02834
Z-2.50000 F300.00000
F600.00000X0.15018 Y7.18344
X0.27718 Y7.00564
X4.72218 Y6.98024
X5.35718 Y6.80244
X5.86518 Y6.49764
X6.29698 Y6.11664
X6.65258 Y5.65944
X6.90658 Y5.10064
X7.03358 Y4.41484
X7.03358 Y0.24924
X7.13518 Y0.14764
X46.97368 Y0.13540
Z-0.60000
X49.97368 Y0.13448
Z-2.50000 F300.00000
F600.00000X89.81218 Y0.12224
X89.98998 Y0.24924
X89.98998 Y3.50044
X90.04078 Y4.66884
X90.21858 Y5.30384
X90.49798 Y5.83724
X90.87898 Y6.26904
X91.36158 Y6.59924
X91.89498 Y6.87864
X92.58078 Y7.00564
X96.74638 Y7.00564
X96.84798 Y7.10724
X96.85952 Y21.95214
Z-0.60000
X96.86185 Y24.95214
Z-2.50000 F300.00000
F600.00000X96.87338 Y39.79704
X96.79718 Y39.92404
X93.57138 Y39.94944
X92.40298 Y40.00024
X91.76798 Y40.17804
X91.23458 Y40.45744
X90.82818 Y40.76224
X90.47258 Y41.21944
X90.19318 Y41.75284
X90.04078 Y42.21004
X89.98998 Y42.97204
X89.98998 Y46.73124
X89.88838 Y46.83284
X50.04988 Y46.84508
Z-0.60000
X47.04988 Y46.84600
Z-2.50000 F300.00000
F600.00000X7.21138 Y46.85824
X7.03358 Y46.73124
X7.03358 Y45.61364

G04 P0 ( dwell for no time -- G64 should not smooth over this point )
G00 Z10.00000 ( retract )

M5 ( Spindle off. )
M9 ( Coolant off. )
M2 ( Program end. )

